public/logo.svg

<svg width="327" height="100" viewBox="0 0 327 100" fill="none" xmlns="http://www.w3.org/2000/svg">
<rect width="61" height="20" rx="10" fill="url(#paint0_linear)"/>
<rect x="94" y="80" width="233" height="20" rx="10" fill="#FF572B"/>
<path d="M139.17 67.7642C135.98 70.2456 132.886 72.1147 129.889 73.3716C126.924 74.5962 123.589 75.2085 119.883 75.2085C116.499 75.2085 113.518 74.5479 110.94 73.2266C108.394 71.873 106.428 70.0522 105.042 67.7642C103.657 65.4761 102.964 62.9946 102.964 60.3198C102.964 56.7104 104.108 53.6328 106.396 51.0869C108.684 48.541 111.826 46.833 115.822 45.9629C116.66 45.7695 118.739 45.3345 122.058 44.6577C125.377 43.981 128.213 43.3687 130.566 42.8208C132.951 42.2407 135.529 41.5479 138.3 40.7422C138.139 37.2617 137.43 34.7158 136.173 33.1045C134.949 31.4609 132.387 30.6392 128.487 30.6392C125.136 30.6392 122.606 31.1064 120.898 32.041C119.222 32.9756 117.772 34.3774 116.547 36.2466C115.355 38.1157 114.501 39.3564 113.985 39.9688C113.502 40.5488 112.438 40.8389 110.795 40.8389C109.312 40.8389 108.023 40.3716 106.928 39.437C105.864 38.4702 105.333 37.2456 105.333 35.7632C105.333 33.4429 106.154 31.187 107.798 28.9956C109.441 26.8042 112.003 24.9995 115.484 23.5815C118.964 22.1636 123.299 21.4546 128.487 21.4546C134.288 21.4546 138.848 22.1475 142.167 23.5332C145.487 24.8867 147.823 27.0459 149.177 30.0107C150.562 32.9756 151.255 36.9072 151.255 41.8057C151.255 44.8994 151.239 47.5259 151.207 49.6851C151.207 51.8442 151.191 54.2451 151.159 56.8877C151.159 59.3691 151.562 61.9634 152.367 64.6704C153.205 67.3452 153.624 69.0693 153.624 69.8428C153.624 71.1963 152.979 72.437 151.69 73.5649C150.434 74.6606 149 75.2085 147.388 75.2085C146.035 75.2085 144.697 74.5801 143.376 73.3232C142.055 72.0342 140.653 70.1812 139.17 67.7642ZM138.3 48.6699C136.367 49.3789 133.547 50.1362 129.841 50.9419C126.167 51.7153 123.621 52.2954 122.203 52.6821C120.785 53.0366 119.432 53.7617 118.143 54.8574C116.854 55.9209 116.209 57.4194 116.209 59.353C116.209 61.3511 116.966 63.0591 118.481 64.4771C119.996 65.8628 121.978 66.5557 124.427 66.5557C127.037 66.5557 129.438 65.9917 131.629 64.8638C133.853 63.7036 135.48 62.2212 136.512 60.4165C137.704 58.4185 138.3 55.1313 138.3 50.5552V48.6699ZM168.097 28.9473V30.5425C170.578 27.481 173.157 25.2412 175.831 23.8232C178.506 22.373 181.535 21.6479 184.919 21.6479C188.98 21.6479 192.718 22.6953 196.134 24.79C199.55 26.8848 202.241 29.9463 204.207 33.9746C206.205 38.0029 207.204 42.7725 207.204 48.2832C207.204 52.3438 206.624 56.082 205.464 59.498C204.336 62.8818 202.773 65.7339 200.775 68.0542C198.777 70.3423 196.408 72.1147 193.669 73.3716C190.962 74.5962 188.045 75.2085 184.919 75.2085C181.149 75.2085 177.974 74.4512 175.396 72.9365C172.85 71.4219 170.417 69.1982 168.097 66.2656V86.085C168.097 91.8857 165.986 94.7861 161.764 94.7861C159.283 94.7861 157.639 94.0288 156.834 92.5142C156.028 91.0317 155.625 88.8564 155.625 85.9883V29.0439C155.625 26.5303 156.173 24.6611 157.269 23.4365C158.365 22.1797 159.863 21.5513 161.764 21.5513C163.634 21.5513 165.148 22.1958 166.308 23.4849C167.501 24.7417 168.097 26.5625 168.097 28.9473ZM193.959 48.1382C193.959 44.6577 193.427 41.6768 192.364 39.1953C191.3 36.6816 189.818 34.7642 187.916 33.4429C186.047 32.0894 183.969 31.4126 181.68 31.4126C178.039 31.4126 174.961 32.8467 172.448 35.7148C169.966 38.583 168.725 42.8047 168.725 48.3799C168.725 53.6328 169.966 57.7256 172.448 60.6582C174.929 63.5586 178.007 65.0088 181.68 65.0088C183.872 65.0088 185.902 64.3804 187.771 63.1235C189.64 61.8345 191.139 59.917 192.267 57.3711C193.395 54.8252 193.959 51.7476 193.959 48.1382ZM222.547 28.9473V30.5425C225.028 27.481 227.607 25.2412 230.281 23.8232C232.956 22.373 235.985 21.6479 239.369 21.6479C243.43 21.6479 247.168 22.6953 250.584 24.79C254 26.8848 256.691 29.9463 258.657 33.9746C260.655 38.0029 261.654 42.7725 261.654 48.2832C261.654 52.3438 261.074 56.082 259.914 59.498C258.786 62.8818 257.223 65.7339 255.225 68.0542C253.227 70.3423 250.858 72.1147 248.119 73.3716C245.412 74.5962 242.495 75.2085 239.369 75.2085C235.599 75.2085 232.424 74.4512 229.846 72.9365C227.3 71.4219 224.867 69.1982 222.547 66.2656V86.085C222.547 91.8857 220.436 94.7861 216.214 94.7861C213.733 94.7861 212.089 94.0288 211.284 92.5142C210.478 91.0317 210.075 88.8564 210.075 85.9883V29.0439C210.075 26.5303 210.623 24.6611 211.719 23.4365C212.815 22.1797 214.313 21.5513 216.214 21.5513C218.084 21.5513 219.598 22.1958 220.758 23.4849C221.951 24.7417 222.547 26.5625 222.547 28.9473ZM248.409 48.1382C248.409 44.6577 247.877 41.6768 246.814 39.1953C245.75 36.6816 244.268 34.7642 242.366 33.4429C240.497 32.0894 238.419 31.4126 236.13 31.4126C232.489 31.4126 229.411 32.8467 226.898 35.7148C224.416 38.583 223.175 42.8047 223.175 48.3799C223.175 53.6328 224.416 57.7256 226.898 60.6582C229.379 63.5586 232.457 65.0088 236.13 65.0088C238.322 65.0088 240.352 64.3804 242.221 63.1235C244.09 61.8345 245.589 59.917 246.717 57.3711C247.845 54.8252 248.409 51.7476 248.409 48.1382ZM275.643 76.8521L276.852 73.9033L260.61 33.0078C259.611 30.6553 259.111 28.9473 259.111 27.8838C259.111 26.7559 259.401 25.7085 259.981 24.7417C260.561 23.7749 261.351 23.0015 262.35 22.4214C263.381 21.8413 264.445 21.5513 265.54 21.5513C267.442 21.5513 268.876 22.1636 269.843 23.3882C270.809 24.5806 271.663 26.3047 272.405 28.5605L283.571 61.0449L294.158 30.8325C294.996 28.3833 295.753 26.4658 296.43 25.0801C297.106 23.6943 297.815 22.7598 298.557 22.2764C299.33 21.793 300.41 21.5513 301.795 21.5513C302.794 21.5513 303.745 21.8252 304.647 22.373C305.582 22.8887 306.291 23.5977 306.774 24.5C307.29 25.4023 307.548 26.353 307.548 27.3521C307.419 27.9644 307.209 28.8345 306.919 29.9624C306.629 31.0903 306.275 32.2344 305.856 33.3945L288.647 78.4473C287.164 82.4111 285.714 85.521 284.296 87.7769C282.878 90.0327 280.993 91.7568 278.641 92.9492C276.32 94.1738 273.178 94.7861 269.214 94.7861C265.347 94.7861 262.447 94.3672 260.513 93.5293C258.579 92.6914 257.613 91.1606 257.613 88.937C257.613 87.4224 258.064 86.2461 258.966 85.4082C259.901 84.6025 261.27 84.1997 263.075 84.1997C263.784 84.1997 264.477 84.2964 265.154 84.4897C265.992 84.6831 266.717 84.7798 267.329 84.7798C268.844 84.7798 270.036 84.5542 270.906 84.103C271.776 83.6519 272.55 82.8623 273.226 81.7344C273.935 80.6387 274.741 79.0112 275.643 76.8521Z" fill="url(#paint1_linear)"/>
<path d="M12 10H88.7461C93.4725 10 95.5603 15.9518 91.8696 18.9043L14.1304 81.0956C10.4397 84.0482 12.5275 90 17.2539 90H103" stroke="url(#paint2_linear)" stroke-width="20"/>
<mask id="mask0" mask-type="alpha" maskUnits="userSpaceOnUse" x="102" y="21" width="206" height="74">
<path d="M139.17 67.7642C135.98 70.2456 132.886 72.1147 129.889 73.3716C126.924 74.5962 123.589 75.2085 119.883 75.2085C116.499 75.2085 113.518 74.5479 110.94 73.2266C108.394 71.873 106.428 70.0522 105.042 67.7642C103.657 65.4761 102.964 62.9946 102.964 60.3198C102.964 56.7104 104.108 53.6328 106.396 51.0869C108.684 48.541 111.826 46.833 115.822 45.9629C116.66 45.7695 118.739 45.3345 122.058 44.6577C125.377 43.981 128.213 43.3687 130.566 42.8208C132.951 42.2407 135.529 41.5479 138.3 40.7422C138.139 37.2617 137.43 34.7158 136.173 33.1045C134.949 31.4609 132.387 30.6392 128.487 30.6392C125.136 30.6392 122.606 31.1064 120.898 32.041C119.222 32.9756 117.772 34.3774 116.547 36.2466C115.355 38.1157 114.501 39.3564 113.985 39.9688C113.502 40.5488 112.438 40.8389 110.795 40.8389C109.312 40.8389 108.023 40.3716 106.928 39.437C105.864 38.4702 105.333 37.2456 105.333 35.7632C105.333 33.4429 106.154 31.187 107.798 28.9956C109.441 26.8042 112.003 24.9995 115.484 23.5815C118.964 22.1636 123.299 21.4546 128.487 21.4546C134.288 21.4546 138.848 22.1475 142.167 23.5332C145.487 24.8867 147.823 27.0459 149.177 30.0107C150.562 32.9756 151.255 36.9072 151.255 41.8057C151.255 44.8994 151.239 47.5259 151.207 49.6851C151.207 51.8442 151.191 54.2451 151.159 56.8877C151.159 59.3691 151.562 61.9634 152.367 64.6704C153.205 67.3452 153.624 69.0693 153.624 69.8428C153.624 71.1963 152.979 72.437 151.69 73.5649C150.434 74.6606 149 75.2085 147.388 75.2085C146.035 75.2085 144.697 74.5801 143.376 73.3232C142.055 72.0342 140.653 70.1812 139.17 67.7642ZM138.3 48.6699C136.367 49.3789 133.547 50.1362 129.841 50.9419C126.167 51.7153 123.621 52.2954 122.203 52.6821C120.785 53.0366 119.432 53.7617 118.143 54.8574C116.854 55.9209 116.209 57.4194 116.209 59.353C116.209 61.3511 116.966 63.0591 118.481 64.4771C119.996 65.8628 121.978 66.5557 124.427 66.5557C127.037 66.5557 129.438 65.9917 131.629 64.8638C133.853 63.7036 135.48 62.2212 136.512 60.4165C137.704 58.4185 138.3 55.1313 138.3 50.5552V48.6699ZM168.097 28.9473V30.5425C170.578 27.481 173.157 25.2412 175.831 23.8232C178.506 22.373 181.535 21.6479 184.919 21.6479C188.98 21.6479 192.718 22.6953 196.134 24.79C199.55 26.8848 202.241 29.9463 204.207 33.9746C206.205 38.0029 207.204 42.7725 207.204 48.2832C207.204 52.3438 206.624 56.082 205.464 59.498C204.336 62.8818 202.773 65.7339 200.775 68.0542C198.777 70.3423 196.408 72.1147 193.669 73.3716C190.962 74.5962 188.045 75.2085 184.919 75.2085C181.149 75.2085 177.974 74.4512 175.396 72.9365C172.85 71.4219 170.417 69.1982 168.097 66.2656V86.085C168.097 91.8857 165.986 94.7861 161.764 94.7861C159.283 94.7861 157.639 94.0288 156.834 92.5142C156.028 91.0317 155.625 88.8564 155.625 85.9883V29.0439C155.625 26.5303 156.173 24.6611 157.269 23.4365C158.365 22.1797 159.863 21.5513 161.764 21.5513C163.634 21.5513 165.148 22.1958 166.308 23.4849C167.501 24.7417 168.097 26.5625 168.097 28.9473ZM193.959 48.1382C193.959 44.6577 193.427 41.6768 192.364 39.1953C191.3 36.6816 189.818 34.7642 187.916 33.4429C186.047 32.0894 183.969 31.4126 181.68 31.4126C178.039 31.4126 174.961 32.8467 172.448 35.7148C169.966 38.583 168.725 42.8047 168.725 48.3799C168.725 53.6328 169.966 57.7256 172.448 60.6582C174.929 63.5586 178.007 65.0088 181.68 65.0088C183.872 65.0088 185.902 64.3804 187.771 63.1235C189.64 61.8345 191.139 59.917 192.267 57.3711C193.395 54.8252 193.959 51.7476 193.959 48.1382ZM222.547 28.9473V30.5425C225.028 27.481 227.607 25.2412 230.281 23.8232C232.956 22.373 235.985 21.6479 239.369 21.6479C243.43 21.6479 247.168 22.6953 250.584 24.79C254 26.8848 256.691 29.9463 258.657 33.9746C260.655 38.0029 261.654 42.7725 261.654 48.2832C261.654 52.3438 261.074 56.082 259.914 59.498C258.786 62.8818 257.223 65.7339 255.225 68.0542C253.227 70.3423 250.858 72.1147 248.119 73.3716C245.412 74.5962 242.495 75.2085 239.369 75.2085C235.599 75.2085 232.424 74.4512 229.846 72.9365C227.3 71.4219 224.867 69.1982 222.547 66.2656V86.085C222.547 91.8857 220.436 94.7861 216.214 94.7861C213.733 94.7861 212.089 94.0288 211.284 92.5142C210.478 91.0317 210.075 88.8564 210.075 85.9883V29.0439C210.075 26.5303 210.623 24.6611 211.719 23.4365C212.815 22.1797 214.313 21.5513 216.214 21.5513C218.084 21.5513 219.598 22.1958 220.758 23.4849C221.951 24.7417 222.547 26.5625 222.547 28.9473ZM248.409 48.1382C248.409 44.6577 247.877 41.6768 246.814 39.1953C245.75 36.6816 244.268 34.7642 242.366 33.4429C240.497 32.0894 238.419 31.4126 236.13 31.4126C232.489 31.4126 229.411 32.8467 226.898 35.7148C224.416 38.583 223.175 42.8047 223.175 48.3799C223.175 53.6328 224.416 57.7256 226.898 60.6582C229.379 63.5586 232.457 65.0088 236.13 65.0088C238.322 65.0088 240.352 64.3804 242.221 63.1235C244.09 61.8345 245.589 59.917 246.717 57.3711C247.845 54.8252 248.409 51.7476 248.409 48.1382ZM275.643 76.8521L276.852 73.9033L260.61 33.0078C259.611 30.6553 259.111 28.9473 259.111 27.8838C259.111 26.7559 259.401 25.7085 259.981 24.7417C260.561 23.7749 261.351 23.0015 262.35 22.4214C263.381 21.8413 264.445 21.5513 265.54 21.5513C267.442 21.5513 268.876 22.1636 269.843 23.3882C270.809 24.5806 271.663 26.3047 272.405 28.5605L283.571 61.0449L294.158 30.8325C294.996 28.3833 295.753 26.4658 296.43 25.0801C297.106 23.6943 297.815 22.7598 298.557 22.2764C299.33 21.793 300.41 21.5513 301.795 21.5513C302.794 21.5513 303.745 21.8252 304.647 22.373C305.582 22.8887 306.291 23.5977 306.774 24.5C307.29 25.4023 307.548 26.353 307.548 27.3521C307.419 27.9644 307.209 28.8345 306.919 29.9624C306.629 31.0903 306.275 32.2344 305.856 33.3945L288.647 78.4473C287.164 82.4111 285.714 85.521 284.296 87.7769C282.878 90.0327 280.993 91.7568 278.641 92.9492C276.32 94.1738 273.178 94.7861 269.214 94.7861C265.347 94.7861 262.447 94.3672 260.513 93.5293C258.579 92.6914 257.613 91.1606 257.613 88.937C257.613 87.4224 258.064 86.2461 258.966 85.4082C259.901 84.6025 261.27 84.1997 263.075 84.1997C263.784 84.1997 264.477 84.2964 265.154 84.4897C265.992 84.6831 266.717 84.7798 267.329 84.7798C268.844 84.7798 270.036 84.5542 270.906 84.103C271.776 83.6519 272.55 82.8623 273.226 81.7344C273.935 80.6387 274.741 79.0112 275.643 76.8521Z" fill="#AF0471"/>
</mask>
<g mask="url(#mask0)">
<rect x="93" y="80" width="223" height="20" fill="#AF0471"/>
</g>
<defs>
<linearGradient id="paint0_linear" x1="30.5" y1="0" x2="30.5" y2="20" gradientUnits="userSpaceOnUse">
<stop stop-color="#AF0371"/>
<stop offset="1" stop-color="#B80D69"/>
</linearGradient>
<linearGradient id="paint1_linear" x1="211.5" y1="-20" x2="211.5" y2="53" gradientUnits="userSpaceOnUse">
<stop stop-color="#ACACAC"/>
<stop offset="1"/>
</linearGradient>
<linearGradient id="paint2_linear" x1="53" y1="10" x2="53" y2="90" gradientUnits="userSpaceOnUse">
<stop stop-color="#AF0471"/>
<stop offset="1" stop-color="#FF572B"/>
</linearGradient>
</defs>
</svg>

<svg width="327" height="100" fill="none" xmlns="http://www.w3.org/2000/svg"><rect width="61" height="20" rx="10" fill="url(#paint0_linear)"/><rect x="94" y="80" width="233" height="20" rx="10" fill="#FF572B"/><path d="M139.2 67.8a41.4 41.4 0 01-9.3 5.6 26 26 0 01-10 1.8c-3.4 0-6.4-.7-9-2a14.9 14.9 0 01-5.9-5.4c-1.3-2.3-2-4.8-2-7.5 0-3.6 1.1-6.7 3.4-9.2 2.3-2.6 5.4-4.3 9.4-5.1a351.2 351.2 0 0114.8-3.2l7.7-2c-.2-3.5-.9-6-2.1-7.7-1.3-1.6-3.8-2.5-7.7-2.5-3.4 0-5.9.5-7.6 1.4-1.7 1-3.1 2.4-4.4 4.2-1.1 2-2 3.2-2.5 3.8-.5.5-1.6.8-3.2.8-1.5 0-2.8-.4-3.9-1.4-1-1-1.6-2.2-1.6-3.6 0-2.4.9-4.6 2.5-6.8s4.2-4 7.7-5.4c3.5-1.4 7.8-2.1 13-2.1 5.8 0 10.3.6 13.7 2 3.3 1.4 5.6 3.5 7 6.5 1.4 3 2 7 2 11.8a544.7 544.7 0 010 15c0 2.6.4 5.2 1.2 7.9.8 2.6 1.2 4.4 1.2 5.1 0 1.4-.6 2.6-2 3.8a6.4 6.4 0 01-4.2 1.6c-1.4 0-2.7-.6-4-1.9a29.1 29.1 0 01-4.2-5.5zm-.9-19.1c-2 .7-4.8 1.4-8.5 2.2a157 157 0 00-7.6 1.8 10 10 0 00-4 2.2c-1.3 1-2 2.5-2 4.5s.8 3.7 2.3 5c1.5 1.5 3.5 2.2 6 2.2s5-.6 7.1-1.7c2.3-1.2 3.9-2.7 5-4.5 1.1-2 1.7-5.3 1.7-9.8v-2zm29.8-19.8v1.6c2.5-3 5-5.3 7.7-6.7A21 21 0 01204.2 34c2 4 3 8.8 3 14.3 0 4-.6 7.8-1.7 11.2a25.1 25.1 0 01-4.7 8.6 21 21 0 01-25.4 4.8c-2.6-1.5-5-3.7-7.3-6.6V86c0 5.8-2.1 8.7-6.3 8.7-2.5 0-4.2-.8-5-2.3a14 14 0 01-1.2-6.5V29c0-2.5.6-4.3 1.7-5.6a5.7 5.7 0 014.5-1.8c1.8 0 3.3.6 4.5 1.9 1.2 1.2 1.8 3 1.8 5.4zM194 48.1c0-3.4-.6-6.4-1.6-8.9-1.1-2.5-2.6-4.4-4.5-5.8-1.9-1.3-4-2-6.2-2-3.7 0-6.7 1.4-9.3 4.3-2.4 2.9-3.7 7.1-3.7 12.7 0 5.2 1.3 9.3 3.7 12.3 2.5 2.9 5.6 4.3 9.3 4.3 2.2 0 4.2-.6 6-1.9 2-1.3 3.4-3.2 4.6-5.7 1-2.6 1.7-5.7 1.7-9.3zM222.5 29v1.6c2.5-3 5.1-5.3 7.8-6.7A21 21 0 01258.7 34c2 4 3 8.8 3 14.3 0 4-.6 7.8-1.8 11.2a25.1 25.1 0 01-4.7 8.6 21 21 0 01-25.4 4.8c-2.5-1.5-5-3.7-7.3-6.6V86c0 5.8-2 8.7-6.3 8.7-2.5 0-4.1-.8-5-2.3a14 14 0 01-1.1-6.5V29c0-2.5.5-4.3 1.6-5.6a5.7 5.7 0 014.5-1.8c1.9 0 3.4.6 4.6 1.9 1.2 1.2 1.7 3 1.7 5.4zm26 19.2c0-3.4-.6-6.4-1.7-8.9-1-2.5-2.5-4.4-4.4-5.8-1.9-1.3-4-2-6.3-2-3.6 0-6.7 1.4-9.2 4.3-2.5 2.9-3.7 7.1-3.7 12.7 0 5.2 1.2 9.3 3.7 12.3 2.5 2.9 5.6 4.3 9.2 4.3 2.2 0 4.3-.6 6.1-1.9 1.9-1.3 3.4-3.2 4.5-5.7 1.1-2.6 1.7-5.7 1.7-9.3zM275.5 77l1.3-3L260.6 33c-1-2.3-1.5-4-1.5-5.1a6 6 0 01.9-3.2 6.5 6.5 0 015.5-3.1c2 0 3.4.6 4.3 1.8 1 1.2 1.9 2.9 2.6 5.2L283.6 61l10.6-30.2c.8-2.4 1.6-4.3 2.2-5.7a6.9 6.9 0 012.2-2.8c.7-.5 1.8-.7 3.2-.7 1 0 2 .2 2.8.8a5.7 5.7 0 012.9 5 65.7 65.7 0 01-1.6 6l-17.3 45c-1.4 4-2.9 7.1-4.3 9.4-1.4 2.2-3.3 4-5.7 5.1a20.3 20.3 0 01-9.4 1.9 23 23 0 01-8.7-1.3c-2-.8-2.9-2.3-2.9-4.6 0-1.5.5-2.7 1.4-3.5.9-.8 2.3-1.2 4-1.2.8 0 1.5.1 2.2.3l2.1.3c1.5 0 2.7-.2 3.6-.7a6 6 0 002.3-2.4c.7-1 1.5-2.7 2.4-4.8z" fill="url(#paint1_linear)"/><path d="M12 10h76.7a5 5 0 013.2 8.9L14 81.1a5 5 0 003.2 8.9H103" stroke="url(#paint2_linear)" stroke-width="20"/><mask id="a" mask-type="alpha" maskUnits="userSpaceOnUse" x="102" y="21" width="206" height="74"><path d="M139.2 67.8a41.4 41.4 0 01-9.3 5.6 26 26 0 01-10 1.8c-3.4 0-6.4-.7-9-2a14.9 14.9 0 01-5.9-5.4c-1.3-2.3-2-4.8-2-7.5 0-3.6 1.1-6.7 3.4-9.2 2.3-2.6 5.4-4.3 9.4-5.1a351.2 351.2 0 0114.8-3.2l7.7-2c-.2-3.5-.9-6-2.1-7.7-1.3-1.6-3.8-2.5-7.7-2.5-3.4 0-5.9.5-7.6 1.4-1.7 1-3.1 2.4-4.4 4.2-1.1 2-2 3.2-2.5 3.8-.5.5-1.6.8-3.2.8-1.5 0-2.8-.4-3.9-1.4-1-1-1.6-2.2-1.6-3.6 0-2.4.9-4.6 2.5-6.8s4.2-4 7.7-5.4c3.5-1.4 7.8-2.1 13-2.1 5.8 0 10.3.6 13.7 2 3.3 1.4 5.6 3.5 7 6.5 1.4 3 2 7 2 11.8a544.7 544.7 0 010 15c0 2.6.4 5.2 1.2 7.9.8 2.6 1.2 4.4 1.2 5.1 0 1.4-.6 2.6-2 3.8a6.4 6.4 0 01-4.2 1.6c-1.4 0-2.7-.6-4-1.9a29.1 29.1 0 01-4.2-5.5zm-.9-19.1c-2 .7-4.8 1.4-8.5 2.2a157 157 0 00-7.6 1.8 10 10 0 00-4 2.2c-1.3 1-2 2.5-2 4.5s.8 3.7 2.3 5c1.5 1.5 3.5 2.2 6 2.2s5-.6 7.1-1.7c2.3-1.2 3.9-2.7 5-4.5 1.1-2 1.7-5.3 1.7-9.8v-2zm29.8-19.8v1.6c2.5-3 5-5.3 7.7-6.7A21 21 0 01204.2 34c2 4 3 8.8 3 14.3 0 4-.6 7.8-1.7 11.2a25.1 25.1 0 01-4.7 8.6 21 21 0 01-25.4 4.8c-2.6-1.5-5-3.7-7.3-6.6V86c0 5.8-2.1 8.7-6.3 8.7-2.5 0-4.2-.8-5-2.3a14 14 0 01-1.2-6.5V29c0-2.5.6-4.3 1.7-5.6a5.7 5.7 0 014.5-1.8c1.8 0 3.3.6 4.5 1.9 1.2 1.2 1.8 3 1.8 5.4zM194 48.1c0-3.4-.6-6.4-1.6-8.9-1.1-2.5-2.6-4.4-4.5-5.8-1.9-1.3-4-2-6.2-2-3.7 0-6.7 1.4-9.3 4.3-2.4 2.9-3.7 7.1-3.7 12.7 0 5.2 1.3 9.3 3.7 12.3 2.5 2.9 5.6 4.3 9.3 4.3 2.2 0 4.2-.6 6-1.9 2-1.3 3.4-3.2 4.6-5.7 1-2.6 1.7-5.7 1.7-9.3zM222.5 29v1.6c2.5-3 5.1-5.3 7.8-6.7A21 21 0 01258.7 34c2 4 3 8.8 3 14.3 0 4-.6 7.8-1.8 11.2a25.1 25.1 0 01-4.7 8.6 21 21 0 01-25.4 4.8c-2.5-1.5-5-3.7-7.3-6.6V86c0 5.8-2 8.7-6.3 8.7-2.5 0-4.1-.8-5-2.3a14 14 0 01-1.1-6.5V29c0-2.5.5-4.3 1.6-5.6a5.7 5.7 0 014.5-1.8c1.9 0 3.4.6 4.6 1.9 1.2 1.2 1.7 3 1.7 5.4zm26 19.2c0-3.4-.6-6.4-1.7-8.9-1-2.5-2.5-4.4-4.4-5.8-1.9-1.3-4-2-6.3-2-3.6 0-6.7 1.4-9.2 4.3-2.5 2.9-3.7 7.1-3.7 12.7 0 5.2 1.2 9.3 3.7 12.3 2.5 2.9 5.6 4.3 9.2 4.3 2.2 0 4.3-.6 6.1-1.9 1.9-1.3 3.4-3.2 4.5-5.7 1.1-2.6 1.7-5.7 1.7-9.3zM275.5 77l1.3-3L260.6 33c-1-2.3-1.5-4-1.5-5.1a6 6 0 01.9-3.2 6.5 6.5 0 015.5-3.1c2 0 3.4.6 4.3 1.8 1 1.2 1.9 2.9 2.6 5.2L283.6 61l10.6-30.2c.8-2.4 1.6-4.3 2.2-5.7a6.9 6.9 0 012.2-2.8c.7-.5 1.8-.7 3.2-.7 1 0 2 .2 2.8.8a5.7 5.7 0 012.9 5 65.7 65.7 0 01-1.6 6l-17.3 45c-1.4 4-2.9 7.1-4.3 9.4-1.4 2.2-3.3 4-5.7 5.1a20.3 20.3 0 01-9.4 1.9 23 23 0 01-8.7-1.3c-2-.8-2.9-2.3-2.9-4.6 0-1.5.5-2.7 1.4-3.5.9-.8 2.3-1.2 4-1.2.8 0 1.5.1 2.2.3l2.1.3c1.5 0 2.7-.2 3.6-.7a6 6 0 002.3-2.4c.7-1 1.5-2.7 2.4-4.8z" fill="#AF0471"/></mask><g mask="url(#a)"><path fill="#AF0471" d="M93 80h223v20H93z"/></g><defs><linearGradient id="paint0_linear" x1="30.5" y1="0" x2="30.5" y2="20" gradientUnits="userSpaceOnUse"><stop stop-color="#AF0371"/><stop offset="1" stop-color="#B80D69"/></linearGradient><linearGradient id="paint1_linear" x1="211.5" y1="-20" x2="211.5" y2="53" gradientUnits="userSpaceOnUse"><stop stop-color="#ACACAC"/><stop offset="1"/></linearGradient><linearGradient id="paint2_linear" x1="53" y1="10" x2="53" y2="90" gradientUnits="userSpaceOnUse"><stop stop-color="#AF0471"/><stop offset="1" stop-color="#FF572B"/></linearGradient></defs></svg>
